svg/300/outlined/splitscreen_vertical_add.svg

<svg xmlns="http://www.w3.org/2000/svg" width="48" height="48" viewBox="0 -960 960 960"><path d="M774.615-774.615H602.306h2.462-22.769 192.616Zm-237.999 12.309q0-23.529 17.081-40.611 17.082-17.082 40.611-17.082h167.998q23.529 0 40.611 17.082 17.082 17.082 17.082 40.611v404.612h-45.384v-404.612q0-5.385-3.462-8.847-3.462-3.462-8.847-3.462H594.308q-5.385 0-8.847 3.462-3.462 3.462-3.462 8.847v619.227q-18.913-3.077-32.148-18.577-13.235-15.499-13.235-36.038v-564.612ZM197.694-140.001q-23.529 0-40.611-17.082-17.082-17.082-17.082-40.611v-564.612q0-23.529 17.082-40.611 17.082-17.082 40.611-17.082h167.767q23.529 0 40.611 17.082 17.082 17.082 17.082 40.611v564.612q0 23.529-17.082 40.611-17.082 17.082-40.611 17.082H197.694ZM377.77-762.306q0-5.385-3.462-8.847-3.462-3.462-8.847-3.462H197.694q-5.385 0-8.847 3.462-3.462 3.462-3.462 8.847v564.612q0 5.385 3.462 8.847 3.462 3.462 8.847 3.462h167.767q5.385 0 8.847-3.462 3.462-3.462 3.462-8.847v-564.612Zm0-12.309H185.385 377.77Zm396.845 719.23v-84.616h-84.616v-45.384h84.616v-84.616h45.384v84.616h84.615v45.384h-84.615v84.615h-45.384Z"/></svg>

<svg xmlns="http://www.w3.org/2000/svg" width="48" height="48" viewBox="0 -960 960 960"><path d="M774.61-774.61h-172.3 2.46H582h192.61Zm-237.99 12.3q0-23.53 17.08-40.61T594.31-820h168q23.53 0 40.61 17.08T820-762.31v404.62h-45.39v-404.62q0-5.38-3.46-8.84t-8.84-3.46h-168q-5.39 0-8.85 3.46t-3.46 8.84v619.23q-18.91-3.08-32.15-18.58-13.23-15.5-13.23-36.03v-564.62ZM197.69-140q-23.53 0-40.61-17.08T140-197.69v-564.62q0-23.53 17.08-40.61T197.69-820h167.77q23.53 0 40.61 17.08t17.08 40.61v564.62q0 23.53-17.08 40.61T365.46-140H197.69Zm180.08-622.31q0-5.38-3.46-8.84t-8.85-3.46H197.69q-5.38 0-8.84 3.46t-3.46 8.84v564.62q0 5.38 3.46 8.84t8.84 3.46h167.77q5.39 0 8.85-3.46t3.46-8.84v-564.62Zm0-12.3H185.39h192.38ZM774.61-55.39V-140H690v-45.39h84.61V-270H820v84.61h84.61V-140H820v84.61h-45.39Z"/></svg>
